X:1
T:Title
%%score { ( 1 3 ) | 2 }
L:1/8
M:4/4
K:Eb
V:1 treble nm="Grand Piano"
V:3 treble 
V:2 bass 
V:1
 z4 z2[Q:1/4=104] E>F | G>[GB] [GB]>[GB] c2 A>c | [ce]>[ce] [Bd]>[Ac] [GB]2 E>F | G>c c>B A2 G2 | %4
 [DF]6 z2 | G>[GB] [GB]>[GB] c2 A>c | [ce]>[ce] [Bd]>[Ac] [GB]2 E>F | G>c c>B G2 [A,DF]2 | %8
[M:3/4] [G,E]6 |[M:1/4] [EGe]>[EBd] |[M:4/4] [Ac]->[EA-c-] [EA-c-]>[EAc] [ce]->[Ece] [EBd]>[EAc] | %11
[M:3/4] [Ac]>[GB] [GB]>[_G=A] [=GB]2 |[M:1/4] [Ac]>[GB] |[M:4/4] D2 z2 [Fd]2 z2 | %14
 [Ac]>[GB] [GB]>[Ge] [GB]2 E>F | G>[GB] [GB]>[GB] c2 A>c | [ce]>[ce] [Bd]>[Ac] [GB]2 E>F | %17
 G>c c>B G2 [DF]2 |[M:7/4] E6 z2 z2 z4 |] %19
V:2
 z4 z2 [E,G,]>[E,A,D] | [E,B,E]>[E,E] [E,E]>[E,E][K:treble] [A,EA]2 [A,CE]>[A,EA] | %2
 [A,E]>[A,E][K:bass] [A,E]>[A,E] [E,E]2 [E,G,]>[E,A,D] | %3
 [E,B,E]>[E,A,E] [E,G,E]>[G,B,E] [F,B,D]2 [E,B,E]2 | [B,,B,]2 B,>B, B,>A, [G,B,]>[F,B,D] | %5
 [E,B,E]>[E,E] [E,E]>[E,E][K:treble] [A,EA]2 [A,CE]>[A,EA] | %6
 [A,E]>[A,E][K:bass] [A,E]>[A,E] [E,E]2 [E,G,]>[E,A,D] | %7
 [E,B,E]>[E,A,E] [E,G,E]>[G,B,E] [B,E]2 B,,2 |[M:3/4] E,6 |[M:1/4] E,>E, | %10
[M:4/4] A,>A, A,>A, A,>A, A,>A, |[M:3/4] [E,E]>[E,E] [E,E]>[E,E] [E,E]2 |[M:1/4] [E,E]>[E,E] | %13
[M:4/4] B,,>B,, B,,>B,, [B,,B,]>B,, B,,>B,, | [E,E]>[E,E] [E,E]>[E,B,] [E,B,]2 [E,G,]>[E,A,D] | %15
 [E,B,E]>[E,E] [E,E]>[E,E][K:treble] [A,EA]2 [A,CE]>[A,EA] | %16
 [A,E]>[A,E][K:bass] [A,E]>[A,E] [E,E]2 [E,G,]>[E,A,D] | %17
 [E,B,E]>[E,A,E] [E,G,E]>[G,B,E] [B,E]2 [B,,A,]2 |[M:7/4] [E,G,]6 z2 z2 z4 |] %19
V:3
 x8 | x8 | x8 | x8 | z4 z z/ B,/ E>F | x8 | x8 | x8 |[M:3/4] x6 |[M:1/4] x2 |[M:4/4] E2 z2 E2 z2 | %11
[M:3/4] x6 |[M:1/4] x2 |[M:4/4] [FA]->[DF-A-] [DF-A-]>[DFA] z z/ B,/ [DFd]>[DAc] | x8 | x8 | x8 | %17
 x8 |[M:7/4] x14 |] %19

